X:19093
T:Xiraldilla (CT 464)
R:Xiraldilla
C:Tradicional
S:Msica Tradicional Asturiana, (C) Tello & Tito. Asturies, 2001.
S:http://pagina.de/MusTradAst <telloytito@asturies.org>
N:Xiraldilla, transcrita en Llamo, ayuntamiento de Riosa.
O:Llamo (Riosa)
A:Asturies
Z:Cancioneru de Torner 464
M:2/4
L:1/8
Q:1/4=160
W:No hay amor sin pena,
W:pena sin dolor,
W:ai! amor, amor,
W:amor, amor.
W:
W:A la crcel de la verde flor.
W:No hay amor sin pena,
W:pena sin dolor,
W:ai! amor, amor,
W:amor, amor,
W:
W:prisionero llevan a mi amor.
W:No hay amor sin pena,
W:pena sin dolor,
W:ai! amor, amor,
W:amor, amor.
K:C
|cc cd|ee ef|g2 g2|f4|
e3 d|dc Ac|c2 A2|G4|
|: e3 d|dc Ac|c2 A2|G2 z2 :|
|cc cd|ee ef|g2 g2|f4|
e3 d|dc Ac|c2 A2|G2 ||
